X:13602
T:Midnight on the Water
R:Waltz
C:Lewis Thomasson (1874 - 1924)
O:USA, Texas
Z:Paul Hardy's Annex Tunebook 2015 (see www.paulhardy.net). Creative Commons cc by-nc-sa licenced.
M:3/4
L:1/8
Q:1/4=120
K:D
DE|"D"F2 F2 FE|F2 F2 FE|F A3 AB|AF ED DE|"D"F2 d2 "G"B2|"D" A3 F DE|"A" F2 AF EF|"D" D4:|
(3ABc||"D"d6|"Bm"dc BA Bc|"D" d3 B AF|"D" D4 d2|"Em"e e3 f2|"Em7" e2 d2 e2|"Bm"f a3 f2|"F#m7"gfed Bc|
"G"d3 cde|dc BA Bc|"D" d3 B AF|D4 DE|"D"F2 d2 "G"B2|"D" A3 F DE|"A" F2 AF EF|"D" D4|]

